icon-themes/breeze_svg/cmd/32/imagemapdialog.svg

<svg viewBox="0 0 32 32" xmlns="http://www.w3.org/2000/svg"><path d="m4 4v12 1 11h12 1v-1-10h10v8h1v-21h-11-1zm1 1h11v11h-11zm12 0h10v11h-10zm-12 12h11v10h-11zm14 9c-.55228 0-1 .44772-1 1s.44772 1 1 1 1-.44772 1-1-.44772-1-1-1zm4 0c-.55228 0-1 .44772-1 1s.44772 1 1 1 1-.44772 1-1-.44772-1-1-1zm4 0c-.55228 0-1 .44772-1 1s.44772 1 1 1 1-.44772 1-1-.44772-1-1-1z" fill="#1d99f3"/><path d="m10 7a3 3 0 0 0 -3 3 3 3 0 0 0 3 3 3 3 0 0 0 3-3 3 3 0 0 0 -3-3zm11 8-6 6-2-2-9 9h13v-3h11v-3z" fill="#4d4d4d"/></svg>

<svg xmlns="http://www.w3.org/2000/svg" viewBox="0 0 32 32">
 <path 
     style="fill:#1d99f3" 
     d="M 4 4 L 4 16 L 4 17 L 4 28 L 16 28 L 17 28 L 17 27 L 17 17 L 27 17 L 27 25 L 28 25 L 28 4 L 17 4 L 16 4 L 4 4 z M 5 5 L 16 5 L 16 16 L 5 16 L 5 5 z M 17 5 L 27 5 L 27 16 L 17 16 L 17 5 z M 5 17 L 16 17 L 16 27 L 5 27 L 5 17 z M 19 26 C 18.44772 26 18 26.44772 18 27 C 18 27.55228 18.44772 28 19 28 C 19.55228 28 20 27.55228 20 27 C 20 26.44772 19.55228 26 19 26 z M 23 26 C 22.44772 26 22 26.44772 22 27 C 22 27.55228 22.44772 28 23 28 C 23.55228 28 24 27.55228 24 27 C 24 26.44772 23.55228 26 23 26 z M 27 26 C 26.44772 26 26 26.44772 26 27 C 26 27.55228 26.44772 28 27 28 C 27.55228 28 28 27.55228 28 27 C 28 26.44772 27.55228 26 27 26 z "
     />
 <path 
     style="fill:#4d4d4d" 
     d="M 10 7 A 3 3 0 0 0 7 10 A 3 3 0 0 0 10 13 A 3 3 0 0 0 13 10 A 3 3 0 0 0 10 7 z M 21 15 L 15 21 L 13 19 L 4 28 L 17 28 L 17 25 L 28 25 L 28 22 L 21 15 z "
     />
</svg>
